X:1
T:Shepham, CM
T:Shepham, CM
T:Thomas Sanders Dupuis (1730-1796)
T:Public Domain Courtesy of the Cyber Hymnal™
C:Thomas Sanders Dupuis (1730-1796)
Z:Public Domain
Z:Courtesy of the Cyber Hymnal™
%%score ( 1 2 ) ( 3 4 )
L:1/8
Q:1/4=113
M:3/4
K:G
V:1 treble 
V:2 treble 
V:3 bass 
V:4 bass 
V:1
 E2 | G4 F2 | E4 [^DF]2 | ([EG]2 [FA]2) [EG]2 [^DF]4 [DF]2 | ([EG]2 [FA]2) [GB]2 | %5
 ([EA]2 [DG]2) [DF]2 | [DG]4 [GB]2 | ([GB]2 [Ac][GB]) ([FA][EG]) | ([FA]2 [GB][FA]) ([EG][^DF]) | %9
 ([EG]>[FA] [GB]2) ([FA][EG]) | ([EG]2 [^DF]2) (BA) | ([EG]>[FA]) (Be) ([GB][EG]) | %12
 [CF]2 [B,E]2 [B,^D]2 | [B,E]4 x2 |] x4 |] %15
V:2
 E2 | G4 F2 | E4 x2 | x12 | x6 | x6 | x6 | x6 | x6 | x6 | x4 ^D2 | x2 G2 x2 | x6 | x6 |] x4 |] %15
V:3
 E,2 | G,4 F,2 | E,4 [B,,B,]2 | B,4 [E,B,]2 x6 | [B,,B,]4 [B,,B,]2 | ([E,B,]2 [D,D]2) [G,D]2 | %6
 ([C,C]2 [D,B,]2) [D,A,]2 | [G,,B,]4 E,2 | E,4 E,2 | B,,4 B,,2 | E,4 A,,2 | B,,4 [B,,B,]2 | %12
 [E,B,]4 [E,B,]2 | [A,,A,]2 [B,,G,]2 [B,,F,]2 |] [E,G,]4 |] %15
V:4
 E,2 | G,4 F,2 | E,4 x2 | (E,2 ^D,2) x8 | x6 | x6 | x6 | x4 E,2 | x6 | x6 | x6 | x6 | x6 | x6 |] %14
 x4 |] %15

